X:1
T:O Holy Spirit, Lord of grace
T:Christopher Tye c1505 - ?1572
T:Charles Coffin 1676 - 1749 trans. John Chandler
T:O Holy Spirit, Lord of grace
C:Christopher Tye
C:c1505 - ?1572
Z:Charles Coffin
Z:1676 - 1749
Z:trans. John Chandler
%%score [ 1 2 3 4 ]
L:1/8
M:4/4
K:G
V:1 treble nm="S"
V:2 treble nm="A"
V:3 treble-8 transpose=-12 nm="T"
V:4 bass nm="B"
V:1
!mf! D2 | G3 A (Bc) d2 | d2 ^c2 d2 A2 | =c2 B2 G2 G2 | F4 z2 A2 | B3 A G2 (FG) | A(BcA) B2 B2 | %7
w: O|Ho- ly Spi- * rit,|Lord of grace, E-|ter- nal source of|love, In-|flame, we pray, our *|in- most * * hearts with|
 AG G4 F2 | G4 z2 B2 |"^cresc." A(GAB) c2 c2 | B(ABc) (de) f2 | e2 d2 d2 ^c2 | d4!f! z2 d2 | %13
w: fire from heav'n a-|bove. As|thou dost * * join with|ho- liest * * bonds * The|Fa- ther and the|Son, So|
 d2 d2 B4 | z2 B2 e3 d | ^c2 B2 cdee | A4 z2 d2 | d2 =c2 d3 c | B8 |] %19
w: fill us all|with mu- tual|love and knit our hearts in|one, and|knit our hearts in|one.|
V:2
!mf! B,2 | D2 D2 G2 F2 | A3 G (FE) F2 | E2 D2 D2 ^C2 | D4 z2 F2 | G3 E D2 D2 | E3 F G3 F | %7
w: O|Ho- ly Spi- rit,|Lord of grace, _ E-|ter- nal source of|love, In-|flame, we pray, our|in- most hearts with|
 E(DCB,) D3 C | B,4 z2"^cresc." G2 | F2 F2 E(DEF) | G2 G2 F2 A2 | A2 A2 G2 A2 | F8 | z4!f! z2 G2 | %14
w: fire from * * heav'n a-|bove. As|thou dost join with * *|ho- liest bonds The|Fa- ther and the|Son,|So|
 G2 G2 E4 | z2 E2 A3 G | F2 E2 FGAA | D2 G2 G2 F2 | G8 |] %19
w: fill us all|with mu- yual|love and knit our hearts in|one, our hearts in|one.|
V:3
!mf! G2 | B3 A e2 d2 | f2 e2 d2 d2 | G3 G G2 G2 | A4 z2 d2 | d3 c B2 (AB) | c2 c2 d2 d2 | %7
w: O|Ho- ly Spi- rit,|Lord of grace, E-|ter- nal source of|love, In-|flame, we pray, our *|in- most hearts with|
 c(BAG) A2 A2 | G4 z2"^cresc." d2 | d2 d2 c2 A2 | G3 G A3 B | ^c2 d2 e2 e2 | d2!f! d2 d2 d2 | %13
w: fire from * * heav'n a-|bove. As|thou dost join with|ho- liest bonds The|Fa- ther and the|Son, So fill us|
 B4 z2 B2 | e3 d c2 B2 | ^cdee ABcB | d2 ^c2 d2 A2 | B2 (GA) B(c A2) | G8 |] %19
w: all with|mu- tual love and|knit our hearts in one, and knit our|hearts in one, and|knit our * hearts in *|one.|
V:4
!mf! G,2 | G,3 F, E,2 B,2 | A,2 A,2 D,2 D,2 | E,2 G,2 E,2 E,2 | D,4 z2 D,2 | G,,3 A,, (B,,C,) D,2 | %6
w: O|Ho- ly Spi- rit,|Lord of grace, E-|ter- nal source of|love, In|flame, we pray * our|
 C,(B,, A,,2) G,,2 B,,2 | C,2 E,2 D,2 D,2 | G,,4 z2"^cresc." G,,2 | D,2 D,2 A,,(B,,C,D,) | %10
w: in- most * hearts with|fire from heav'n a-|bove. As|thou dost join with * *|
 E,2 E,2 D,2 D,2 | A,2 F,2 E,2 A,2 | D,8 |!f! z2 G,2 G,2 G,2 | E,4 z2 E,2 | A,3 G, F,2 E,2 | %16
w: ho- liest bonds The|Fa- ther and the|Son,|So fill us|all with|mu- tual love and|
 F,G,A,A, D,2 F,2 | G,2 E,2 D,2 D,2 | G,,8 |] %19
w: knit our hearts in one, and|knit our hearts in|one.|

